X: 23972
T: Lochrynach
R: reel
M: 4/4
K: Gmajor
G2Bd cAFD|G2Bd c2cf|gdBd ecAc|BGAFG2G,2:|
|:g2 fg/a/ gdBG|g2 fg/a/g2b2|1 gdBd ecAc|BGAFG2G,2:|2 gdBd ceAc|Bc/d/ DF G2G,2||

